X:1
T:Title
%%score ( 1 2 ) { 3 | 4 }
L:1/8
Q:1/4=108
M:9/8
K:Eb
V:1 treble nm="Grand Piano, Soprano"
V:2 treble 
V:3 bass nm="Choir Pad, Send the Light (Bell)"
V:4 bass 
V:1
 [EG] [EG]2 [FA] [GB]2- [GB]3 | [Ge] [Bd]2 [Ac] [GB]2- [GB]2- [GB]/ z/ | %2
w: By~William~M.~Bell * * * *||
 [GB] [FA]2 [EG] [FA]2- [FA]3 | [FA] [DB]2 [DF] [EG]2- [EG]2- [EG]/ z/ | %4
w: ||
 [EG] [EG]2 [FA] [GB]2- [GB]3 | [EG][EG][FA] [GB] [Ac]2- [Ac]2- [Ac]/ z/ | %6
w: ||
 [Ac][Ac][Bd] [ce] [GB]2- [GB]3 | [EG]BA [DF] E2- E2- E/ z/ | %8
w: ||
[M:12/8] [EG][FA][GB] [Ac]6- [Ac]3/2 z/ [Ac] | [ce][Bd][Ac] [GB]6- [GB]3/2 z/ z | %10
w: ||
 [EG][DF]E F2- [DF-] [DF-]2 [DF-] [D-F]>D[DF] | BA[DF] G2- [EG-] [EG-]2 [EG-] [E-G]3/2E3/2 | %12
w: ||
 [EG][FA][GB] [Ac]6- [Ac]3/2 z/ [Ac] | [ce][Bd][Ac] [GB]6- [GB]3/2 z/ z | %14
w: ||
 [EG]2 [GB] A2- [EA-] [DA]2 [EG] [FA]3 | [B,D]3 [B,E]6- [B,E]2- [B,E]/ z/ |] %16
w: ||
V:2
 x9 | x9 | x9 | x9 | x9 | x9 | x9 | z D2 z3 z3 |[M:12/8] x12 | x12 | z3 .D3 z6 | .D3 .E3 z6 | x12 | %13
 x12 | z3 .F3 z6 | x12 |] %16
V:3
 B, B,2 B, E2- E3 | B,[K:treble] C2 D E2- E2- E/ z/ | B, B,2 B, B,2- B,3 | %3
 B, F,2 B, B,2- B,2- B,/ z/ | B, B,2 B,[K:treble] E2- E3 | B, B,2 E E2- E2- E/ z/ | %6
 E E2 E E2- E[K:bass] B,2 | B, F,2 A, G,2- G,2- G,/ z/ |[M:12/8] B,2[K:treble] E E2 E E2 E E2 E | %9
 E2 E E2 E E2 E .E3 | B,A,G, B,2 B, B,2 B, B,2 B, | F,2 B, B,2 B, B,2 B, .B,3 | %12
 B,2[K:treble] E E2 E E2 E E2 E | E2 E E2 E E2 E .E3 | B,2 B, D2 C B,2 B, B,3 | %15
 A,3 G,6- G,2- G,/ z/ |] %16
V:4
 E, E,2 E, E,2- E,3 | E, E,2 E, E,2- E,2- E,/ z/ | E, E,2 E, B,,2- B,,3 | %3
 B,, B,,2 B,, E,2- E,2- E,/ z/ | E, E,2 E, E,2- E,3 | E, E,2 E, A,2- A,2- A,/ z/ | %6
 A, A,2 A, B,2- B, z z | B,, B,,2 B,, E,2- E,2- E,/ z/ |[M:12/8] E,2 E, A,2 A, A,2 A, A,2 A, | %9
 A,2 A, E,2 E, E,2 E, .E,3 | E,2 E, B,,6- B,,3/2 z/ B,, | B,,2 B,, E,2 E, E,2 E, .E,3 | %12
 E,2 E, A,2 A, A,2 A, A,2 A, | A,2 A, E,2 E, E,2 E, .E,3 | E,2 E, B,,3- B,,2 B,, B,,3 | %15
 B,,3 E,6- E,2- E,/ z/ |] %16

